src/card_system/max/jcb.svg

<svg viewBox="0 0 84 41" fill="none" xmlns="http://www.w3.org/2000/svg">
<path d="M53.7734 23.8231H57.1176C57.2131 23.8231 57.4361 23.7913 57.5316 23.7913C58.1686 23.6639 58.71 23.0906 58.71 22.2944C58.71 21.53 58.1686 20.9567 57.5316 20.7975C57.4361 20.7656 57.245 20.7656 57.1176 20.7656H53.7734V23.8231Z" fill="url(#paint0_linear)"/>
<path d="M56.7346 2.70703C53.5497 2.70703 50.9381 5.28679 50.9381 8.50352V14.523H59.1233C59.3143 14.523 59.5373 14.523 59.6965 14.5548C61.5438 14.6504 62.9133 15.6058 62.9133 17.262C62.9133 18.5678 61.9896 19.6825 60.2698 19.9054V19.9691C62.1489 20.0965 63.5821 21.1475 63.5821 22.7718C63.5821 24.5235 61.9897 25.6701 59.8876 25.6701H50.9062V37.4541H59.4099C62.5948 37.4541 65.2064 34.8744 65.2064 31.6576V2.70703H56.7346Z" fill="url(#paint1_linear)"/>
<path d="M58.296 17.6435C58.296 16.8792 57.7545 16.3696 57.1176 16.274C57.0539 16.274 56.8946 16.2422 56.7991 16.2422H53.7734V19.0449H56.7991C56.8946 19.0449 57.0857 19.0449 57.1176 19.013C57.7545 18.9175 58.296 18.4079 58.296 17.6435Z" fill="url(#paint2_linear)"/>
<path d="M24.6936 2.70703C21.5087 2.70703 18.8971 5.28679 18.8971 8.50352V22.8037C20.5214 23.5999 22.2094 24.1095 23.8974 24.1095C25.9038 24.1095 26.9867 22.8992 26.9867 21.2431V14.4911H31.9551V21.2112C31.9551 23.8228 30.3308 25.9567 24.821 25.9567C21.4768 25.9567 18.8652 25.2242 18.8652 25.2242V37.4223H27.3689C30.5538 37.4223 33.1654 34.8425 33.1654 31.6258V2.70703H24.6936Z" fill="url(#paint3_linear)"/>
<path d="M40.7145 2.70703C37.5296 2.70703 34.918 5.28679 34.918 8.50352V16.0835C36.383 14.8414 38.9309 14.0452 43.0394 14.2363C45.237 14.3319 47.5938 14.937 47.5938 14.937V17.3894C46.4154 16.7842 45.0141 16.2428 43.1987 16.1154C40.0775 15.8925 38.1984 17.4212 38.1984 20.0965C38.1984 22.8037 40.0775 24.3324 43.1987 24.0776C45.0141 23.9502 46.4154 23.3769 47.5938 22.8037V25.256C47.5938 25.256 45.2688 25.8611 43.0394 25.9567C38.9309 26.1478 36.383 25.3516 34.918 24.1095V37.486H43.4216C46.6065 37.486 49.2181 34.9062 49.2181 31.6895V2.70703H40.7145Z" fill="url(#paint4_linear)"/>
<defs>
<linearGradient id="paint0_linear" x1="50.9336" y1="22.2982" x2="65.2456" y2="22.2982" gradientUnits="userSpaceOnUse">
<stop stop-color="#007940"/>
<stop offset="0.2285" stop-color="#00873F"/>
<stop offset="0.7433" stop-color="#40A737"/>
<stop offset="1" stop-color="#5CB531"/>
</linearGradient>
<linearGradient id="paint1_linear" x1="50.9324" y1="20.0667" x2="65.2455" y2="20.0667" gradientUnits="userSpaceOnUse">
<stop stop-color="#007940"/>
<stop offset="0.2285" stop-color="#00873F"/>
<stop offset="0.7433" stop-color="#40A737"/>
<stop offset="1" stop-color="#5CB531"/>
</linearGradient>
<linearGradient id="paint2_linear" x1="50.9332" y1="17.6396" x2="65.2458" y2="17.6396" gradientUnits="userSpaceOnUse">
<stop stop-color="#007940"/>
<stop offset="0.2285" stop-color="#00873F"/>
<stop offset="0.7433" stop-color="#40A737"/>
<stop offset="1" stop-color="#5CB531"/>
</linearGradient>
<linearGradient id="paint3_linear" x1="18.8903" y1="20.0667" x2="33.4239" y2="20.0667" gradientUnits="userSpaceOnUse">
<stop stop-color="#1F286F"/>
<stop offset="0.4751" stop-color="#004E94"/>
<stop offset="0.8261" stop-color="#0066B1"/>
<stop offset="1" stop-color="#006FBC"/>
</linearGradient>
<linearGradient id="paint4_linear" x1="34.8356" y1="20.0667" x2="48.9511" y2="20.0667" gradientUnits="userSpaceOnUse">
<stop stop-color="#6C2C2F"/>
<stop offset="0.1735" stop-color="#882730"/>
<stop offset="0.5731" stop-color="#BE1833"/>
<stop offset="0.8585" stop-color="#DC0436"/>
<stop offset="1" stop-color="#E60039"/>
</linearGradient>
</defs>
</svg>

<svg xmlns="http://www.w3.org/2000/svg" xmlns:xlink="http://www.w3.org/1999/xlink" viewBox="0 0 84 40"><defs><style>.cls-1{fill:#fff;}.cls-2{fill:url(#linear-gradient);}.cls-3{fill:#4aa35b;}.cls-4{fill:url(#linear-gradient-2);}.cls-5{fill:#214f9c;}.cls-6{fill:#da3833;}</style><linearGradient id="linear-gradient" x1="340.43" y1="-381.29" x2="354.75" y2="-381.29" gradientTransform="matrix(1, 0, 0, -1, -289.5, -359)" gradientUnits="userSpaceOnUse"><stop offset="0" stop-color="#007940"/><stop offset="0.23" stop-color="#00873f"/><stop offset="0.74" stop-color="#40a737"/><stop offset="1" stop-color="#5cb531"/></linearGradient><linearGradient id="linear-gradient-2" x1="340.43" y1="-376.64" x2="354.75" y2="-376.64" xlink:href="#linear-gradient"/></defs><path class="cls-1" d="M68.1,32A8.1,8.1,0,0,1,60,40.13H16v-32A8.1,8.1,0,0,1,24.09,0h44V32Z"/><path class="cls-2" d="M53.77,23.82h3.35l.41,0a1.49,1.49,0,0,0,1.18-1.5,1.54,1.54,0,0,0-1.18-1.49,1.76,1.76,0,0,0-.41,0H53.77Z"/><path class="cls-3" d="M56.73,2.71A5.79,5.79,0,0,0,50.94,8.5v6h8.18a3.57,3.57,0,0,1,.58,0c1.84.1,3.21,1.06,3.21,2.71a2.7,2.7,0,0,1-2.64,2.64V20c1.88.13,3.31,1.18,3.31,2.8s-1.59,2.9-3.69,2.9h-9V37.45h8.5a5.8,5.8,0,0,0,5.8-5.79V2.71Z"/><path class="cls-4" d="M58.3,17.64a1.37,1.37,0,0,0-1.18-1.37l-.32,0h-3v2.81h3c.09,0,.29,0,.32,0a1.35,1.35,0,0,0,1.18-1.37Z"/><path class="cls-5" d="M24.69,2.71A5.79,5.79,0,0,0,18.9,8.5V22.8a11.39,11.39,0,0,0,5,1.31A2.78,2.78,0,0,0,27,21.24V14.49h5v6.72C32,23.82,30.33,26,24.82,26a24.18,24.18,0,0,1-5.95-.74v12.2h8.5a5.8,5.8,0,0,0,5.8-5.79V2.71Z"/><path class="cls-6" d="M40.71,2.71A5.79,5.79,0,0,0,34.92,8.5v7.58c1.46-1.24,4-2,8.12-1.84a25.17,25.17,0,0,1,4.55.7v2.45a11,11,0,0,0-4.39-1.28c-3.12-.22-5,1.31-5,4s1.88,4.23,5,4a11.45,11.45,0,0,0,4.39-1.28v2.46A25.62,25.62,0,0,1,43,26c-4.11.19-6.66-.61-8.12-1.85V37.49h8.5a5.8,5.8,0,0,0,5.8-5.8v-29Z"/></svg>
